X: 22998
T: Last Chance, The
R: polka
M: 2/4
K: Adorian
|:E|A>B cd|ea e>d|cA AB/c/|dB GB|
A>B cd|ea e>d|cA B^G|A2 A:|
|:z|ea e>c|ea e>d|cA AB/c/|dB GB|
[1 ea e>c|ea e>d|cA B^G|A2 A2:|
[2 A>B cd|ea e>d|cA B^G|A2 AE||

